src/assets/icons/leaves.svg

<?xml version="1.0" encoding="UTF-8" standalone="no"?>
<svg width="85px" height="73px" viewBox="0 0 85 73" version="1.1" xmlns="http://www.w3.org/2000/svg" xmlns:xlink="http://www.w3.org/1999/xlink" xmlns:sketch="http://www.bohemiancoding.com/sketch/ns">
    <!-- Generator: Sketch 3.3.3 (12081) - http://www.bohemiancoding.com/sketch -->
    <title>about_leaves</title>
    <desc>Created with Sketch.</desc>
    <defs></defs>
    <g id="Page-1" stroke-width="1" fill-rule="evenodd" sketch:type="MSPage">
        <g id="about_leaves" sketch:type="MSLayerGroup">
            <path d="M45.418807,29.4269469 L45.418807,18.3966376 C45.418807,18.3966376 45.418807,0.0116261495 64.085651,0.0116261495 L75.2852837,0.0116261495 L75.2852837,11.0425168 C75.2852837,11.0425168 75.2852837,29.4269469 56.6184397,29.4269469 L49.1518205,29.4269469" id="Fill-1" sketch:type="MSShapeGroup"></path>
            <path d="M39.4071239,72.7737336 L39.4071239,58.218957 C39.4071239,58.218957 39.4071239,33.9609962 14.7769314,33.9609962 L0,33.9609962 L0,48.5157727 C0,48.5157727 0,72.7737336 24.6296004,72.7737336 L34.4810854,72.7737336" id="Fill-3" sketch:type="MSShapeGroup"></path>
            <path d="M84.8253388,48.516354 L84.8253388,33.9615775 L70.0478153,33.9615775 C70.0478153,33.9615775 45.418807,33.9615775 45.418807,58.2195383 L45.418807,67.9227227 C45.418807,67.9227227 54.3709347,66.701977 68.916958,51.2734953 C68.916958,51.2734953 61.8535398,67.8047173 45.418807,72.7743149 L60.1963304,72.7743149 C60.1963304,72.7743149 84.8253388,72.7743149 84.8253388,48.516354" id="Fill-4" sketch:type="MSShapeGroup"></path>
            <path d="M9.54005509,11.0425168 L9.54005509,0.0116261495 L20.7396878,0.0116261495 C20.7396878,0.0116261495 39.4071239,0.0116261495 39.4071239,18.3966376 L39.4071239,25.7501772 C39.4071239,25.7501772 32.6225716,24.825317 21.5976001,13.1317358 C21.5976001,13.1317358 26.9517066,25.6606558 39.4071239,29.4275282 L28.2068991,29.4275282 C28.2068991,29.4275282 9.54005509,29.4275282 9.54005509,11.0425168" id="Fill-6" sketch:type="MSShapeGroup"></path>
        </g>
    </g>
</svg>

<svg width="85" height="73" xmlns="http://www.w3.org/2000/svg"><g fill-rule="evenodd"><path d="M45.419 29.427v-11.03S45.419.012 64.086.012h11.2v11.03s0 18.385-18.668 18.385h-7.466M39.407 72.774V58.219s0-24.258-24.63-24.258H0v14.555s0 24.258 24.63 24.258h9.851M84.825 48.516V33.962H70.048s-24.63 0-24.63 24.258v9.703s8.953-1.221 23.499-16.65c0 0-7.063 16.532-23.498 21.501h14.777s24.63 0 24.63-24.258M9.54 11.043V.012h11.2s18.667 0 18.667 18.385v7.353s-6.784-.925-17.81-12.618c0 0 5.355 12.529 17.81 16.296h-11.2s-18.667 0-18.667-18.385"/></g></svg>
